X:24
T:N\"ackens polska
R:polska K1
A:\"Alvdalen, Dalarna
B:Version 1: Spelmansmusik fr{\aa}n Sverige, Danmark och Norge
Z:id:hn-k1-24
M:3/4
L:1/8
K:Gm
G>B dd fa | a=b/a/ (3gag ff | d>c B/A/B/c/ dB | A/^F/A/^F/ FG G2 :|
|: G>B Bd fd | d^c =e/c/=e/c/ d2 | G>B Bd fd | d^c =e/c/=e/c/ d2 |
{A}B2 {c}B/A/B/c/ dB | A/^F/A/^F/ FG G2 | g^f{gf} dB dc |
A/^F/A/^F/ FG G2 :|
<end>
<start>
